X:19
% The song with calculated Accords
T:Wieringen
C:                           %composer
O:                           %origin
M:3/4                           % type of bar  4/4 or 3/4
L:1/4                           % length of shortest note
Q:                           %tempo  Q:1/4=80
K:A     % transposed from G
V:1
"E"EFG|"A"A2A|"A"AAB|"A"A2 A|"D"d2 c| "Bm"B2 B |"E"BcB|"A"A3|     
"E"EFG|"A"AAA|"A"A2B| "A"A2 A| "D"d2 c | "Bm"B2 B | "E"BcB| "A"A3|
